src/asset/24px/angle-right.svg

<svg width="24" height="24" viewBox="0 0 24 24" fill="none" xmlns="http://www.w3.org/2000/svg">
<path fill-rule="evenodd" clip-rule="evenodd" d="M8.28741 20.7068C7.9042 20.3163 7.9042 19.6831 8.28741 19.2926L14.75 12.7068C15.1332 12.3163 15.1332 11.6831 14.75 11.2926L8.28741 4.70683C7.9042 4.31631 7.9042 3.68314 8.28741 3.29262C8.67063 2.90209 9.29195 2.90209 9.67517 3.29262L16.1378 9.87841C17.2874 11.05 17.2874 12.9495 16.1378 14.121L9.67517 20.7068C9.29195 21.0974 8.67063 21.0974 8.28741 20.7068Z" fill="#808080"/>
</svg>

<svg width="24" height="24" fill="none" xmlns="http://www.w3.org/2000/svg"><path fill-rule="evenodd" clip-rule="evenodd" d="M8.287 20.707a1.014 1.014 0 010-1.414l6.463-6.586a1.014 1.014 0 000-1.414L8.287 4.707a1.014 1.014 0 010-1.414.968.968 0 011.388 0l6.463 6.585a3.04 3.04 0 010 4.243l-6.463 6.586a.968.968 0 01-1.388 0z" fill="gray"/></svg>
